X: 20837
T: Johnny's Wedding
R: reel
M: 4/4
K: Edorian
|:F|GEBE GEEG|FDAD FDDF|GEBE GEEG|FEDF E3F|
GEBE GEEG|FDAD FDDF|EGFA GBAc|1 Be^df e2:|2 Be^df ef||
(3gfe fd edBA|BGAF GE E2|(3gfe fd edBA|Be^df e2 ef|
(3gfe fd edBA|BGAF GE E2|EGFA GBAc|Be^df e2:|

